X:1
T:Perrette disait Jean
T:Perrette disait Jean
T:Guillaume Costeley
C:Guillaume Costeley
%%score [ 1 2 3 4 ]
L:1/8
Q:1/4=120
M:4/4
K:F
V:1 treble nm="Soprano" snm="S"
V:2 treble nm="Alto" snm="A"
V:3 treble-8 nm="Tenor" snm="T"
V:4 bass nm="Bass" snm="B"
V:1
 z2 d2 cA c2 | B2 A4 z2 | z2 d3 A c2 | B2 B2 A4 | z GGA B2 B2 | A2 A2 A2 G2 | G2 ^F2 G4 | %7
w: 'Per- ret- te', di-|sait Jean,|'Per- ret- te',|di- sait Jean,|Vo- tre­a- mi- tié me|point, vo- tre­a- mi-|tié me point;|
 z2 d2 cA c2 | B2 A4 z2 | z2 d3 A c2 | B2 B2 A4 | z GGA B2 B2 | A2 A2 A2 G2 | G2 ^F2 G2 _B2 | %14
w: Ô- tez moi de|l'a- han,|ô- tez moi|de l'a- han|Qui me tient en ce|point, qui me tient|en ce point.' Per-|
 B2 B2 A2 z d | dd B2 c2 A2 | z ABB G2 G2 | ^F2 G2 A2 B2- | B2 A4 G2 | A2 ff/f/ ed c2 | %20
w: ret- te­a- lors, Per-|ret- te­a- lors le joint,|Per- ret- te­a- lors le|joint, Di sant en|_ bas- se|voix: 'Jean, ne te hâ- te point,|
 BB/B/ AG ^FABA | FGAc ffee | ddcc B2 (A2- | A)G G4 ^F2 | G2 G2 A2 B2- | B2 A4 G2 | %26
w: Jean, ne te hâ- te point: Mon ma- ri|est au bois, mon ma- ri est au|bois, mon ma- ri est au|_ _ _ _|bois.' Di- sant en|_ bas- se|
 A2 ff/f/ ed c2 | BB/B/ AG ^FABA | FGAc ffee | ddcc B2 (A2- | A)G G4 ^F2 | G8- | G8 |] %33
w: voix: 'Jean, ne te hâ- te point,|Jean, ne te hâ- te point: Mon ma- ri|est au bois, mon ma- ri est au|bois, mon ma- ri est au|_ _ _ _|bois.'|_|
V:2
 G2 FD F2 E2 | D2 z2 z2 G2- | GD F2 E2 E2 | D3 E F2 FC | _E4 DDD=E | F2 F2 F2 D2 | D2 D2 =B,4 | %7
w: 'Per- ret- te', di- sait-|Jean,- 'Per-|* ret- te', di- sait|* 'Per- ret- te, Pe-|ret- te, Vo- tre­a- mi-|tié,- vo- tre­a- mi-|tié me point;|
 G2 FD F2 E2 | D2 z2 z2 G2- | GD F2 E2 E2 | D D2 E F F2 C | _E E2 E DDD=E | (F4 F)EDC | %13
w: Ô- tez moi de l'a-|han, ô-|* tez moi de l'a-|han, ô- tez moi, ô- tez|moi de l'a- han Qui me tient|en _ _ _ _|
 D2 D2 =B,2 G2 | G2 G2 F4- | F2 z G GG F2 | z FFF _E2 E2 | D2 D2 F2 F2 | F2 F2 D4 | %19
w: _ ce point.' Per-|ret- te­a- lors|_ Per- ret- te­a- lors,|Per- ret- te­a- lors le|joint, Di- sant en|bas- se voix:|
 z2 AA/A/ GF E2 | GF/F/ FD D2 z ^C | DEFE DA A2 | A2 z A F2 F2 | z DDD D2 D2 | =B,2 D2 F2 F2 | %25
w: 'Jean, ne te hâ- te point,|Jean, ne te hâ- te point: Mon|ma- ri est au bois, mon ma-|ri, mon ma- ri|mon ma- ri est au|bois.' Di- sant en|
 F2 F2 D4 | z2 AA/A/ GF E2 | GF/F/ FD D2 z ^C | DEFE DA A2 | A2 z A F2 F2 | z DDD D2 D2 | %31
w: bas- se voix:|'Jean, ne te hâ- te point,|Jean ne te hâ- te point: Mon|ma- ri est au bois, mon ma-|ri, mon ma- ri,|mon ma- ri est au|
 D2 z _E D=B,EE | D8 |] %33
w: bois, mon ma- ri est au|bois.'|
V:3
 z8 | z2 d2 cA c2 | B2 A6 | z4 d2 cA | c2 c2 G2 G2 | d2 d2 (cB)BA/G/ | A2 A2 G2 d2 | _BG B2 A2 A2 | %8
w: |'Per- ret- te', di-|sait Jean,|'Per- ret- te',|di- sait Jean, 'Vo-|tre­a- mi- tié _ _ _ _|_ me point; O-|tez moi de l'a- han,|
 z2 d2 cA c2 | B2 A6 | z4 d2 cA | c2 c2 G2 G2 | d2 d2 (c2 B)A/G/ | A2 A2 G2 d2 | d4 dddd | %15
w: ô- tez moi de|l'a- han,|ô- tez moi|de l'a- han Qui|me tient en _ _ _|_ ce point.' Per-|ret- te, Per- ret- te­a-|
 B2 _e2 cc d2 | dddd B2 c2 | A2 B2 c2 d2 | dccB/A/ B2 B2 | A2 dA/A/ cd A2 | dd/d/ cB A^FGA | %21
w: lors le joint, Per- ret-|te, Per- rette a- lors le|joint, Di- sant en|bas- * * * * * se|voix: 'Jean, ne te hâ- te point,|Jean, ne te hâ- te point: Mon ma- ri|
 B2 A2 A2 z c | ffee ddcc | (B3 A/G/ A2) A2 | G2 B2 c2 d2- | d2 c2 B4 | A2 dA/A/ cd A2 | %27
w: est au bois, mon|ma- ri est au bois, mon ma- ri|est _ _ _ au|bois.' Di- sant en|_ bas- se|voix: 'Jean, ne te hâ- te point,|
 dd/d/ cB A^FGA | B2 A2 A2 z =c | ffee ddcc | B4 A4 | GBcc =B2 c2 | =B8 |] %33
w: Jean, ne te hâ- te point: Mon- ma- ri|est au bois, mon|ma- ri est au bois, mon ma- ri|est au|bois, mon ma- ri est au|bois.'|
V:4
 z8 | G,2 F,D, F,2 E,2 | D,4 z4 | z2 G,2 F,D, F,2 | _E,2 C,2 z4 | z D,D,E, F,2 G,2 | (D,4 G,4) | %7
w: |'Per- ret- te', di- sait|Jean,|'Per- ret- te', di-|sait Jean,|Vo- tre­a- mi- tié me|point; _|
 z8 | G,2 F,D, F,2 E,2 | D,4 z4 | G,4 F,D, F,2 | _E,2 C,2 z4 | z D,D,E, (F,2 G,2) | D,4 G,2 G,2 | %14
w: |O- tez moi de l'a-|han,|ô- tez moi de|l'a- han|Qui me tient en _|ce point.' Per-|
 G,2 G,2 D,4 | z4 z2 z D, | D,D,B,,B,, _E,E,C,C, | D,2 G,2 (F,E,D,C, | B,,2) F,2 G,2 G,2 | D,4 z4 | %20
w: ret- te­a- lors,|Per-|ret- te­a- lors, Per- ret- te­a- lors le|joint, Di- sant _ _ _|_ en bas- se|voix:|
 G,D,/D,/ F,G, D,2 z2 | z4 D,2 A,2 | D,D, A,2 B,B,F,F, | G,2 G,2 D,4 | z2 G,2 (F,E,D,C, | %25
w: 'Jean, ne te hâ- te point:|Mon ma-|ri, mon ma- ri, mon ma- ri|est au bois.'|Di- sant _ _ _|
 B,,2) F,2 G,2 G,2 | D,4 z4 | G,D,/D,/ F,G, D,2 z2 | z4 D,2 A,2 | D,D, A,2 B,B,F,F, | G,2 G,2 D,4 | %31
w: _ en bas- se|voix:|'Jean, ne te hâ- te point:|Mon ma-|ri, mon ma- ri, mon ma- ri|est au bois,|
 z G,_E,C, G,2 C,2 | G,8 |] %33
w: mon ma- ri est au|bois.'|

